SVG_Azure_Grouped/AI/Machine Learning Studio Web Service (classic).svg

<?xml version="1.0" encoding="UTF-8" standalone="no"?>
<!-- Generated by Microsoft Visio, SVG Export Machine Learning Studio Web Service (classic).svg Page-1 -->

<svg
   xmlns:dc="http://purl.org/dc/elements/1.1/"
   xmlns:cc="http://creativecommons.org/ns#"
   xmlns:rdf="http://www.w3.org/1999/02/22-rdf-syntax-ns#"
   xmlns:svg="http://www.w3.org/2000/svg"
   xmlns="http://www.w3.org/2000/svg"
   xmlns:sodipodi="http://sodipodi.sourceforge.net/DTD/sodipodi-0.dtd"
   xmlns:inkscape="http://www.inkscape.org/namespaces/inkscape"
   width="0.78580093in"
   height="0.79112393in"
   viewBox="0 0 56.577794 56.96085"
   xml:space="preserve"
   class="st5"
   version="1.1"
   id="svg50"
   sodipodi:docname="Machine Learning Studio Web Service (classic).svg"
   style="font-size:12px;overflow:visible;color-interpolation-filters:sRGB;fill:none;fill-rule:evenodd;stroke-linecap:square;stroke-miterlimit:3"
   inkscape:version="0.92.5 (2060ec1f9f, 2020-04-08)"><metadata
   id="metadata54"><rdf:RDF><cc:Work
       rdf:about=""><dc:format>image/svg+xml</dc:format><dc:type
         rdf:resource="http://purl.org/dc/dcmitype/StillImage" /></cc:Work></rdf:RDF></metadata><sodipodi:namedview
   pagecolor="#ffffff"
   bordercolor="#666666"
   borderopacity="1"
   objecttolerance="10"
   gridtolerance="10"
   guidetolerance="10"
   inkscape:pageopacity="0"
   inkscape:pageshadow="2"
   inkscape:window-width="640"
   inkscape:window-height="480"
   id="namedview52"
   showgrid="false"
   inkscape:zoom="1.4162701"
   inkscape:cx="37.718376"
   inkscape:cy="37.96832"
   inkscape:window-x="0"
   inkscape:window-y="0"
   inkscape:window-maximized="0"
   inkscape:current-layer="svg50" />
	<style
   type="text/css"
   id="style2">
	<![CDATA[
		.st1 {fill:#f2f2f2;stroke:none;stroke-linecap:butt;stroke-width:34}
		.st2 {fill:#0078d4;stroke:none;stroke-linecap:butt;stroke-width:34}
		.st3 {fill:url(#grad0-10);stroke:none;stroke-linecap:butt;stroke-width:34}
		.st4 {fill:#ffffff;stroke:none;stroke-linecap:butt;stroke-width:34}
		.st5 {fill:none;fill-rule:evenodd;font-size:12px;overflow:visible;stroke-linecap:square;stroke-miterlimit:3}
	]]>
	</style>

	<defs
   id="Patterns_And_Gradients">
		<linearGradient
   id="grad0-10"
   x1="0.36326961"
   y1="90.767815"
   x2="35.739808"
   y2="90.767815"
   gradientTransform="scale(1.0093163,0.99076968)"
   gradientUnits="userSpaceOnUse">
			<stop
   offset="0"
   stop-color="#32d4f5"
   stop-opacity="1"
   id="stop4" />
			<stop
   offset="0.32"
   stop-color="#31d1f3"
   stop-opacity="1"
   id="stop6" />
			<stop
   offset="0.53"
   stop-color="#2ec9eb"
   stop-opacity="1"
   id="stop8" />
			<stop
   offset="0.7"
   stop-color="#29bade"
   stop-opacity="1"
   id="stop10" />
			<stop
   offset="0.86"
   stop-color="#22a5cb"
   stop-opacity="1"
   id="stop12" />
			<stop
   offset="1"
   stop-color="#198ab3"
   stop-opacity="1"
   id="stop14" />
			<stop
   offset="1"
   stop-color="#198ab3"
   stop-opacity="1"
   id="stop16" />
		</linearGradient>
	</defs>
	<g
   id="g48"
   transform="translate(-34.000654,-34.003472)">
		<title
   id="title20">Page-1</title>
		<g
   id="group18384-1"
   transform="translate(33.634,-34.0157)">
			<title
   id="title22">Machine Learning Studio Web Service (classic).18384</title>
			<g
   id="group18385-2">
				<title
   id="title24">Icon-machinelearning-163</title>
				<g
   id="shape18386-3"
   transform="translate(19.649,-19.5237)">
					<title
   id="title26">Sheet.18386</title>
					<path
   d="M 29.15,124.98 A 20.777538,20.874552 0 1 1 3.67,92 L 3.9,91.84 a 20.770445,20.867349 0 0 1 25.25,33.14 z"
   class="st1"
   id="path28"
   inkscape:connector-curvature="0"
   style="fill:#f2f2f2;stroke:none;stroke-width:34;stroke-linecap:butt" />
				</g>
				<g
   id="shape18387-5"
   transform="translate(16.2456,-15.0182)">
					<title
   id="title31">Sheet.18387</title>
					<path
   d="M 36.41,91.4 A 20.795,20.892 -180 0 0 7.31,87.3 l -0.24,0.16 a 20.795,20.892 -180 0 0 12.79,37.52 20.4628,20.5583 -180 0 0 12.69,-4.38 20.8615,20.9588 -180 0 0 3.86,-29.2 z M 1.76,102.65 A 18.4365,18.5225 0 0 1 3.79,95.54 H 8.8 a 36.0093,36.1773 -180 0 0 -0.96,7.11 z m 9.96,-7.11 h 6.91 v 7.11 h -8.1 a 31.259,31.4048 0 0 1 1.06,-7.11 z m 9.57,0 h 6.91 a 31.259,31.4048 0 0 1 1.06,7.11 h -7.97 z m -2.66,9.78 v 7.07 h -7.04 a 30.6943,30.8375 0 0 1 -1.06,-7.07 z m 2.66,0 h 7.97 a 30.6943,30.8375 0 0 1 -1.06,7.07 h -7.04 z m 10.66,0 H 38 a 18.6358,18.7227 0 0 1 -1.99,7.07 h -5.18 a 33.2189,33.3739 -180 0 0 0.99,-7.07 z m 0,-2.67 a 33.6507,33.8077 -180 0 0 -0.99,-7.11 h 5.05 a 17.9714,18.0553 0 0 1 1.99,7.11 z m 2.36,-9.78 h -4.28 a 19.6656,19.7573 -180 0 0 -2.92,-5.54 17.9382,18.0219 0 0 1 7.07,5.54 z m -7.04,0 H 21.29 V 86.2 a 10.8626,10.9133 0 0 1 5.85,6.67 z M 18.63,86.2 v 6.67 h -6.11 a 10.8626,10.9133 0 0 1 5.98,-6.81 z m -9.9,3.4 A 17.905,17.9885 0 0 1 12.39,87.43 20.33,20.4248 -180 0 0 9.47,93 H 5.48 a 16.7755,16.8538 0 0 1 3.25,-3.4 z m -6.97,15.72 h 6.08 a 35.6771,35.8435 -180 0 0 0.96,7.07 H 3.79 a 17.3403,17.4212 0 0 1 -2.03,-7.07 z m 3.75,9.81 h 4.12 a 20.1306,20.2246 -180 0 0 2.93,5.54 17.7721,17.855 0 0 1 -7.05,-5.54 z m 7.01,0 h 5.98 v 6.68 a 10.8626,10.9133 0 0 1 -5.98,-6.85 z m 8.64,6.68 v -6.85 h 5.98 a 10.8626,10.9133 0 0 1 -5.98,6.95 z m 9.77,-3.51 a 16.6094,16.6869 0 0 1 -3.86,2.27 19.3334,19.4236 -180 0 0 2.96,-5.61 h 4.15 a 18.8683,18.9564 0 0 1 -3.25,3.34 z"
   class="st2"
   id="path33"
   inkscape:connector-curvature="0"
   style="fill:#0078d4;stroke:none;stroke-width:34;stroke-linecap:butt" />
				</g>
				<g
   id="shape18388-7">
					<title
   id="title36">Sheet.18388</title>
					<path
   d="M 34.75,124.98 H 1.66 c -1.03,0 -1.66,-1.71 -1.06,-2.57 l 11.39,-16.69 a 1.29554,1.30158 -180 0 0 0.23,-0.77 V 93.94 A 0.664378,0.667477 -180 0 0 11.555622,93.272523 L 10.96,93.27 a 1.29554,1.30158 0 0 1 -1.29,-1.3 v -0.6 a 1.29554,1.30158 0 0 1 1.29,-1.44 h 14.52 a 1.32876,1.33495 0 0 1 1.29,1.34 v 0.6 a 1.32876,1.33495 0 0 1 -1.29,1.4 h -0.63 a 0.631159,0.634104 -180 0 0 -0.631159,0.667477 L 24.22,104.98 a 1.12944,1.13471 -180 0 0 0.23,0.74 l 11.39,16.69 c 0.6,0.9 -0.03,2.57 -1.09,2.57 z"
   class="st3"
   id="path38"
   inkscape:connector-curvature="0"
   style="fill:url(#grad0-10);stroke:none;stroke-width:34;stroke-linecap:butt" />
				</g>
				<g
   id="shape18389-11"
   transform="translate(6.11204,-3.27064)">
					<title
   id="title41">Sheet.18389</title>
					<path
   d="m 0.03,123.84 8.21,-12.01 a 2.89004,2.90353 -180 0 0 0.53,-1.74 v -4.84 a 0.963348,0.967842 0 0 1 0.963348,-0.93447 L 14.38,104.32 a 0.963348,0.967842 0 0 1 0.963348,0.93447 L 15.35,110.42 a 1.99313,2.00243 -180 0 0 0.33,1.17 l 8.4,12.25 a 0.730816,0.734225 0 0 1 -0.59794,1.13471 L 0.63,124.98 a 0.730816,0.734225 0 0 1 -0.59794,-1.13471 z"
   class="st4"
   id="path43"
   inkscape:connector-curvature="0"
   style="fill:#ffffff;stroke:none;stroke-width:34;stroke-linecap:butt" />
				</g>
			</g>
		</g>
	</g>
</svg>

<?xml version="1.0" encoding="UTF-8" standalone="no"?>
<!DOCTYPE svg PUBLIC "-//W3C//DTD SVG 1.1//EN" "http://www.w3.org/Graphics/SVG/1.1/DTD/svg11.dtd">
<!-- Generated by Microsoft Visio, SVG Export Machine Learning Studio Web Service (classic).svg Page-1 -->
<svg xmlns="http://www.w3.org/2000/svg" xmlns:xlink="http://www.w3.org/1999/xlink" xmlns:ev="http://www.w3.org/2001/xml-events"
		width="1.73026in" height="1.73578in" viewBox="0 0 124.579 124.976" xml:space="preserve" color-interpolation-filters="sRGB"
		class="st5">
	<style type="text/css">
	<![CDATA[
		.st1 {fill:#f2f2f2;stroke:none;stroke-linecap:butt;stroke-width:34}
		.st2 {fill:#0078d4;stroke:none;stroke-linecap:butt;stroke-width:34}
		.st3 {fill:url(#grad0-10);stroke:none;stroke-linecap:butt;stroke-width:34}
		.st4 {fill:#ffffff;stroke:none;stroke-linecap:butt;stroke-width:34}
		.st5 {fill:none;fill-rule:evenodd;font-size:12px;overflow:visible;stroke-linecap:square;stroke-miterlimit:3}
	]]>
	</style>

	<defs id="Patterns_And_Gradients">
		<linearGradient id="grad0-10" x1="0" y1="0" x2="1" y2="0" gradientTransform="rotate(89.425494573925 0.5 0.5)">
			<stop offset="0" stop-color="#32d4f5" stop-opacity="1"/>
			<stop offset="0.32" stop-color="#31d1f3" stop-opacity="1"/>
			<stop offset="0.53" stop-color="#2ec9eb" stop-opacity="1"/>
			<stop offset="0.7" stop-color="#29bade" stop-opacity="1"/>
			<stop offset="0.86" stop-color="#22a5cb" stop-opacity="1"/>
			<stop offset="1" stop-color="#198ab3" stop-opacity="1"/>
			<stop offset="1" stop-color="#198ab3" stop-opacity="1"/>
		</linearGradient>
	</defs>
	<g>
		<title>Page-1</title>
		<g id="group17954-1" transform="translate(33.634,-34.0157)">
			<title>Machine Learning Studio Web Service (classic).17954</title>
			<g id="group17955-2">
				<title>Icon-machinelearning-163</title>
				<g id="shape17956-3" transform="translate(19.649,-19.5237)">
					<title>Sheet.17956</title>
					<path d="M29.15 124.98 A20.7746 20.8716 0 1 1 3.67 92 L3.9 91.84 A20.7694 20.8663 0 0 1 29.15 124.98 Z"
							class="st1"/>
				</g>
				<g id="shape17957-5" transform="translate(16.2456,-15.0182)">
					<title>Sheet.17957</title>
					<path d="M36.41 91.4 A20.795 20.892 -180 0 0 7.31 87.3 L7.07 87.46 A20.795 20.892 -180 0 0 19.86 124.98 A20.4628
								 20.5583 -180 0 0 32.55 120.6 A20.8615 20.9588 -180 0 0 36.41 91.4 ZM1.76 102.65 A18.4365 18.5225
								 0 0 1 3.79 95.54 L8.8 95.54 A36.0093 36.1773 -180 0 0 7.84 102.65 L1.76 102.65 ZM11.72 95.54 L18.63
								 95.54 L18.63 102.65 L10.53 102.65 A31.259 31.4048 0 0 1 11.59 95.54 L11.72 95.54 ZM21.29 95.54 L28.2
								 95.54 A31.259 31.4048 0 0 1 29.26 102.65 L21.29 102.65 L21.29 95.54 ZM18.63 105.32 L18.63 112.39
								 L11.59 112.39 A30.6943 30.8375 0 0 1 10.53 105.32 L18.63 105.32 ZM21.29 105.32 L29.26 105.32 A30.6943
								 30.8375 0 0 1 28.2 112.39 L21.16 112.39 L21.29 105.32 ZM31.95 105.32 L38 105.32 A18.6358 18.7227
								 0 0 1 36.01 112.39 L30.83 112.39 A33.2189 33.3739 -180 0 0 31.82 105.32 L31.95 105.32 ZM31.95 102.65
								 A33.6507 33.8077 -180 0 0 30.96 95.54 L36.01 95.54 A17.9714 18.0553 0 0 1 38 102.65 L31.95 102.65
								 ZM34.31 92.87 L30.03 92.87 A19.6656 19.7573 -180 0 0 27.11 87.33 A17.9382 18.0219 0 0 1 34.18 92.87
								 L34.31 92.87 ZM27.27 92.87 L21.29 92.87 L21.29 86.2 A10.8626 10.9133 0 0 1 27.14 92.87 L27.27 92.87
								 ZM18.63 86.2 L18.63 92.87 L12.52 92.87 A10.8626 10.9133 0 0 1 18.5 86.06 L18.63 86.2 ZM8.73 89.6
								 A17.905 17.9885 0 0 1 12.39 87.43 A20.33 20.4248 -180 0 0 9.47 93 L5.48 93 A16.7755 16.8538 0 0
								 1 8.73 89.6 ZM1.76 105.32 L7.84 105.32 A35.6771 35.8435 -180 0 0 8.8 112.39 L3.79 112.39 A17.3403
								 17.4212 0 0 1 1.76 105.32 ZM5.51 115.13 L9.63 115.13 A20.1306 20.2246 -180 0 0 12.56 120.67 A17.7721
								 17.855 0 0 1 5.51 115.13 ZM12.52 115.13 L18.5 115.13 L18.5 121.81 A10.8626 10.9133 0 0 1 12.52 114.96
								 L12.52 115.13 ZM21.16 121.81 L21.16 114.96 L27.14 114.96 A10.8626 10.9133 0 0 1 21.16 121.91 L21.16
								 121.81 ZM30.93 118.3 A16.6094 16.6869 0 0 1 27.07 120.57 A19.3334 19.4236 -180 0 0 30.03 114.96
								 L34.18 114.96 A18.8683 18.9564 0 0 1 30.93 118.3 Z" class="st2"/>
				</g>
				<g id="shape17958-7">
					<title>Sheet.17958</title>
					<path d="M34.75 124.98 L1.66 124.98 C0.63 124.98 0 123.27 0.6 122.41 L11.99 105.72 A1.29554 1.30158 -180 0 0
								 12.22 104.95 L12.22 93.94 a0.664378 0.667477 -180 0 0 -0.664378 -0.667477 L10.96 93.27 A1.29554
								 1.30158 0 0 1 9.67 91.97 L9.67 91.37 A1.29554 1.30158 0 0 1 10.96 89.93 L25.48 89.93 A1.32876 1.33495
								 0 0 1 26.77 91.27 L26.77 91.87 A1.32876 1.33495 0 0 1 25.48 93.27 L24.85 93.27 a0.631159 0.634104
								 -180 0 0 -0.631159 0.667477 L24.22 104.98 A1.12944 1.13471 -180 0 0 24.45 105.72 L35.84 122.41 C36.44
								 123.31 35.81 124.98 34.75 124.98 Z" class="st3"/>
				</g>
				<g id="shape17959-11" transform="translate(6.11204,-3.27064)">
					<title>Sheet.17959</title>
					<path d="M0.03 123.84 L8.24 111.83 A2.89004 2.90353 -180 0 0 8.77 110.09 L8.77 105.25 a0.963348 0.967842 0 0
								 1 0.963348 -0.934468 L14.38 104.32 a0.963348 0.967842 0 0 1 0.963348 0.934468 L15.35 110.42 A1.99313
								 2.00243 -180 0 0 15.68 111.59 L24.08 123.84 a0.730816 0.734225 0 0 1 -0.59794 1.13471 L0.63 124.98
								 a0.730816 0.734225 0 0 1 -0.59794 -1.13471 Z" class="st4"/>
				</g>
			</g>
		</g>
	</g>
</svg>
